X: 2243
T: Mrs Macdonald of Clanrannald's Reel
%R: reel
B: Niel Gow & Sons "A Second Collection of Strathspey Reels, etc." v.2 p.24 #3
Z: 2022 John Chambers <jc:trillian.mit.edu>
M: C|
L: 1/8
K: Em
% - - - - - - - - - -
% Voice 1 reformatted for 2 6-bar lines.
V: 1 staves=2
e |\
E/E/E TB>A GDDF | E/E/E TB>A G(ABG) | cdBc ADFD | E/E/E TB>A GEE :| g | eBe^c  dDDg | eBe^d efe^c |
dfBd ADFD | E/E/E TB>A GEEg || eBe^c dDDf | eBe^d efe^c | dfBd ABFA | GBAB GEE |]
% - - - - - - - - - -
% Voice 2 preserves the staff layout in the book.
V: 2 clef=bass middle=d
z | e2e2 d2d2 | e2e2 e2e2 | f2g2 f2d2 | e2B2 e2e :| z | e'2e'2 d'2d'2 |
e'2e'2 e2e2 | f2g2 f2d2 | e2B2 e2e2 || e2e2 d2d2 | e2e2 e2e2 | d2g2 f2d2 | e2B2 E2E |]


